X:140
T: Spatter the Dew
S: "The Roche Collection of Traditional Irish Music" [I/74/193]
L: 1/8
M: 4/4
R: reel
K: Ador
A2 AB c2 cd | e2 ed ea a2 | A2 AB c2 cd | e=fed eA A2 |
A2 AB c2 cd | e2 ed ea a2 | abag e2 ef | gedB BA A2 ||
abag e2 ef | gfga beeg | abag e2 ef | gedB BA A2 |
abag e2 ef | gfga beef | gfef gedB | BcBA GE E2 |]
